novelwriter/assets/icons/typicons_light/typ_at.svg

<?xml version="1.0" encoding="UTF-8"?>
<svg width="24" height="24" version="1.2" viewBox="0 0 24 24" xmlns="http://www.w3.org/2000/svg">
 <path d="m12 2c-5.5138 0-10 4.4862-10 10s4.4862 10 10 10c2.02 0 3.965-0.59875 5.6238-1.73 0.57-0.39 0.7175-1.1675 0.32875-1.7375-0.38875-0.57125-1.165-0.715-1.7375-0.32875-1.2425 0.84875-2.7 1.2962-4.215 1.2962-4.1362 0-7.5-3.3638-7.5-7.5s3.3638-7.5 7.5-7.5 7.5 3.3638 7.5 7.5v0.625c0 0.69-0.56 1.25-1.25 1.25s-1.25-0.56-1.25-1.25v-3.75c0-0.69125-0.55875-1.25-1.25-1.25-0.55125 0-1.0062 0.3625-1.1725 0.86-0.725-0.53375-1.6112-0.86-2.5775-0.86-2.4125 0-4.375 1.9625-4.375 4.375s1.9625 4.375 4.375 4.375c1.3062 0 2.4688-0.5875 3.27-1.4988 0.685 0.90375 1.76 1.4988 2.98 1.4988 2.0675 0 3.75-1.6825 3.75-3.75v-0.625c0-5.5138-4.4862-10-10-10zm0 11.875c-1.0338 0-1.875-0.84125-1.875-1.875s0.84125-1.875 1.875-1.875 1.875 0.84125 1.875 1.875-0.84125 1.875-1.875 1.875z" fill="#4271ae" stroke-width="1.25"/>
</svg>

<?xml version="1.0" encoding="UTF-8" standalone="no"?>
<svg
   xmlns:dc="http://purl.org/dc/elements/1.1/"
   xmlns:cc="http://creativecommons.org/ns#"
   xmlns:rdf="http://www.w3.org/1999/02/22-rdf-syntax-ns#"
   xmlns:svg="http://www.w3.org/2000/svg"
   xmlns="http://www.w3.org/2000/svg"
   id="svg1321"
   viewBox="0 0 24 24"
   height="24"
   width="24"
   version="1.2">
  <metadata
     id="metadata1327">
    <rdf:RDF>
      <cc:Work
         rdf:about="">
        <dc:format>image/svg+xml</dc:format>
        <dc:type
           rdf:resource="http://purl.org/dc/dcmitype/StillImage" />
        <dc:title></dc:title>
      </cc:Work>
    </rdf:RDF>
  </metadata>
  <defs
     id="defs1325" />
  <path
     style="stroke-width:1.25;fill:#4271ae;fill-opacity:1"
     id="path1319"
     d="M 12,2 C 6.48625,2 2,6.48625 2,12 c 0,5.51375 4.48625,10 10,10 2.02,0 3.965,-0.59875 5.62375,-1.73 0.57,-0.39 0.7175,-1.1675 0.32875,-1.7375 -0.38875,-0.57125 -1.165,-0.715 -1.7375,-0.32875 C 14.9725,19.0525 13.515,19.5 12,19.5 7.86375,19.5 4.5,16.13625 4.5,12 4.5,7.86375 7.86375,4.5 12,4.5 c 4.13625,0 7.5,3.36375 7.5,7.5 v 0.625 c 0,0.69 -0.56,1.25 -1.25,1.25 -0.69,0 -1.25,-0.56 -1.25,-1.25 v -3.75 c 0,-0.69125 -0.55875,-1.25 -1.25,-1.25 -0.55125,0 -1.00625,0.3625 -1.1725,0.86 C 13.8525,7.95125 12.96625,7.625 12,7.625 9.5875,7.625 7.625,9.5875 7.625,12 c 0,2.4125 1.9625,4.375 4.375,4.375 1.30625,0 2.46875,-0.5875 3.27,-1.49875 0.685,0.90375 1.76,1.49875 2.98,1.49875 2.0675,0 3.75,-1.6825 3.75,-3.75 V 12 C 22,6.48625 17.51375,2 12,2 Z m 0,11.875 c -1.03375,0 -1.875,-0.84125 -1.875,-1.875 0,-1.03375 0.84125,-1.875 1.875,-1.875 1.03375,0 1.875,0.84125 1.875,1.875 0,1.03375 -0.84125,1.875 -1.875,1.875 z" />
</svg>
